assets/images/clients/partner3.svg

<svg width="117" height="37" viewBox="0 0 117 37" fill="none" xmlns="http://www.w3.org/2000/svg">
<g clip-path="url(#clip0_1307_7418)">
<path d="M28.9198 11.425H37.2865L37.5595 19.6321H37.6649L41.1417 11.425H49.4871L46.4939 26.4268H41.4372L43.7961 14.639H43.669L38.4022 26.4268H33.7047L33.2388 14.639H33.0913L30.7323 26.4268H25.9277L28.9198 11.425Z" fill="#5A5A5A"/>
<path d="M61.0704 20.8535H61.4076C62.988 20.8535 63.8732 19.0976 63.8732 17.7912C63.8732 16.8268 63.3255 16.0977 62.3349 16.0977H62.019L61.0704 20.8535ZM56.8768 16.0977H56.5617C55.0651 16.0977 54.0544 17.7043 54.0544 19.1197C54.0544 19.9963 54.5812 20.8535 55.5931 20.8535H55.9295L56.8768 16.0977ZM54.5183 26.6846L54.9821 24.2824H53.9698C50.0921 24.2824 48.6797 22.056 48.6797 19.8267C48.6797 16.5263 51.2937 12.6684 56.4354 12.6684H57.3206L57.762 10.4179H63.4118L62.9688 12.6684H63.8532C65.9175 12.6684 69.2462 13.1613 69.2462 17.1481C69.2462 20.6402 66.7823 24.2824 61.7451 24.2824H60.6282L60.1647 26.6846H54.5183Z" fill="#5A5A5A"/>
<path d="M86.0714 11.425L85.1862 15.8619H80.2125L78.1065 26.4268H72.4592L74.5656 15.8619H69.5918L70.477 11.425H86.0714Z" fill="#5A5A5A"/>
<path d="M92.9823 11.425L91.2747 19.9958H91.3593L96.7978 11.425H103.392L100.401 26.4268H94.7527L96.4377 18.0255H96.354L90.9396 26.4268H84.3438L87.3346 11.425H92.9823Z" fill="#5A5A5A"/>
<path d="M107.775 32.0801L108.578 27.8277L116.48 30.2453L107.775 32.0801Z" fill="#5A5A5A"/>
<path d="M105.901 28.7966H24.2594C22.7514 28.7966 22.0954 30.4983 21.4623 32.144C21.2408 32.7172 20.893 33.6192 20.6274 33.9909C20.1455 33.502 19.7916 31.1663 19.6535 30.2456L19.5766 29.7368C19.0907 26.5768 18.6534 23.2419 18.2296 20.0187C16.3782 5.92059 15.5008 0.984428 12.9244 0.934547C9.69327 0.873028 8.54484 6.69417 5.13718 23.9718L4.69089 26.2293C4.18534 28.7966 3.03446 28.7966 2.54321 28.7966H1.0094L0.628906 31.02H2.54321C3.82487 31.02 6.08779 30.4543 6.83488 26.667L7.27954 24.4091C9.38143 13.7574 11.3673 3.70877 12.7699 3.20622C13.9886 4.52558 15.1836 13.616 16.0623 20.3118C16.4886 23.5486 16.9267 26.8953 17.4183 30.0802L17.4927 30.5794C17.8744 33.1287 18.3485 36.3008 20.7001 36.3008C22.2082 36.3008 22.8642 34.5998 23.4972 32.9542C23.7396 32.3248 24.134 31.3068 24.407 31.02H105.522L105.901 28.7966Z" fill="#5A5A5A"/>
</g>
<defs>
<clipPath id="clip0_1307_7418">
<rect width="117" height="36" fill="white" transform="translate(0 0.5)"/>
</clipPath>
</defs>
</svg>

<svg width="117" height="37" viewBox="0 0 117 37" fill="none" xmlns="http://www.w3.org/2000/svg"><g clip-path="url(#a)" fill="#5A5A5A"><path d="M28.92 11.425h8.366l.273 8.207h.106l3.477-8.207h8.345l-2.993 15.002h-5.057l2.36-11.788h-.128l-5.267 11.788h-4.697l-.466-11.788h-.148l-2.359 11.788h-4.804l2.992-15.002Zm32.15 9.429h.338c1.58 0 2.465-1.756 2.465-3.063 0-.964-.547-1.693-1.538-1.693h-.316l-.949 4.756Zm-4.193-4.756h-.315c-1.497 0-2.508 1.606-2.508 3.022 0 .876.527 1.733 1.54 1.733h.335l.948-4.755Zm-2.359 10.587.464-2.403H53.97c-3.878 0-5.29-2.226-5.29-4.455 0-3.3 2.614-7.159 7.755-7.159h.886l.441-2.25h5.65l-.443 2.25h.884c2.065 0 5.393.493 5.393 4.48 0 3.492-2.464 7.134-7.5 7.134h-1.118l-.463 2.403h-5.647Zm31.553-15.26-.885 4.437h-4.974l-2.106 10.565H72.46l2.107-10.565h-4.974l.885-4.437h15.594Zm6.911 0-1.707 8.57h.084l5.439-8.57h6.594l-2.991 15.002h-5.648l1.685-8.401h-.084l-5.414 8.4h-6.596l2.99-15.001h5.648Zm14.793 20.655.803-4.252 7.902 2.417-8.705 1.835Z"/><path d="M105.901 28.797H24.259c-1.508 0-2.164 1.701-2.797 3.347-.221.573-.569 1.475-.835 1.847-.482-.489-.835-2.825-.973-3.745l-.077-.51c-.486-3.16-.924-6.494-1.347-9.717C16.378 5.92 15.5.984 12.924.935c-3.23-.062-4.38 5.76-7.787 23.037l-.446 2.257c-.506 2.568-1.657 2.568-2.148 2.568H1.01L.63 31.02h1.914c1.282 0 3.545-.566 4.292-4.353l.445-2.258c2.101-10.652 4.087-20.7 5.49-21.203 1.219 1.32 2.414 10.41 3.292 17.106.427 3.237.865 6.583 1.356 9.768l.075.5c.381 2.549.856 5.72 3.207 5.72 1.508 0 2.164-1.7 2.797-3.346.243-.63.637-1.647.91-1.934h81.115l.379-2.223Z"/></g><defs><clipPath id="a"><path fill="#fff" transform="translate(0 .5)" d="M0 0h117v36H0z"/></clipPath></defs></svg>
